X: 2
T:Capt Charles Gordon, R.N., Huntly
B:William Marshall Volume 2nd Of A Collection Of Scottish Melodies (1845)
C:William Marshall
L:1/8
M:4/4
O:Scotland
Q:1/4
Z:Clark Bernst
%%Page:30 - 2
F:http://richardrobinson.tunebook.org.uk/tune/3845
%%TBL:{"version":1,"type":"tune","id":"3845"}
K:A
Q:1/4     %Tempo
E  | \
A/A3/2 A3/2A/ G3/2B/ G3/2E/ | A/A3/2 A3/2A/ c3/2e/ c3/2A/ | \
(3def (3edc B2 GE | F/G/A/F/ G/A/B/G/ A2 A2 |
(3cea (3edc B2 GE | (3cea (3ecG (3Afe (3c3/2B/A | \
(3d3/2e/f (3edc B2 GE | F/G/A/F/ G/A/B/G/ A2 A2 |
(3cea (3edc B2 G3/2E/ | (3cea (3ecG (3Afe (3c3/2B/A | \
(3d3/2e/f (3eac B2 GE | F/G/A/F/ G/A/B/G/ A2 A2 |]

